src/icons/file-java-class.svg

<svg width="16" height="16" viewBox="0 0 16 16" fill="none" xmlns="http://www.w3.org/2000/svg">
<path d="M11.6 2.75H12.6C13.0003 2.75 13.1131 2.75233 13.1955 2.76539C13.7304 2.8501 14.1499 3.26959 14.2346 3.80446C14.2477 3.88693 14.25 3.99974 14.25 4.4C14.25 4.98606 14.2477 5.19177 14.2223 5.35198C14.0698 6.31474 13.3147 7.06981 12.352 7.2223C12.1918 7.24767 11.9861 7.25 11.4 7.25H11.25C11.1287 7.25 11.0566 7.2499 11.0022 7.24804C10.9678 7.24686 10.9529 7.24525 10.9493 7.2448C10.8517 7.22459 10.7754 7.14831 10.7552 7.05071C10.7548 7.04709 10.7531 7.03218 10.752 6.99778C10.7501 6.94343 10.75 6.87125 10.75 6.75V3.6C10.75 3.3076 10.7506 3.1334 10.7611 3.00428C10.7676 2.92547 10.7761 2.89234 10.7788 2.88346C10.8023 2.83882 10.8388 2.80234 10.8835 2.77882C10.8923 2.77607 10.9255 2.76757 11.0043 2.76113C11.1334 2.75058 11.3076 2.75 11.6 2.75ZM10.7797 2.88087C10.7797 2.8809 10.7796 2.88144 10.7792 2.88239L10.7797 2.88087ZM10.8809 2.77973C10.8808 2.77972 10.8813 2.77952 10.8824 2.77917L10.8809 2.77973Z" stroke="#5BAFD4" stroke-width="1.5"/>
<path d="M1 6.5V4.85714C1 4.05917 1 3.66019 1.11223 3.33944C1.31326 2.76495 1.76495 2.31326 2.33944 2.11223C2.66019 2 3.05917 2 3.85714 2H10.4C10.9601 2 11.2401 2 11.454 2.10899C11.6422 2.20487 11.7951 2.35785 11.891 2.54601C12 2.75992 12 3.03995 12 3.6V6.5C12 6.9643 12 7.19645 11.9846 7.3923C11.7916 9.84418 9.84418 11.7916 7.3923 11.9846C7.19645 12 6.9643 12 6.5 12C6.0357 12 5.80355 12 5.6077 11.9846C3.15582 11.7916 1.20838 9.84418 1.01541 7.3923C1 7.19645 1 6.9643 1 6.5Z" fill="#5BAFD4"/>
<path d="M11.75 15H1.75C1.51703 15 1.40054 15 1.30866 14.9619C1.18614 14.9112 1.08881 14.8139 1.03806 14.6913C1 14.5995 1 14.483 1 14.25C1 14.017 1 13.9005 1.03806 13.8087C1.08881 13.6861 1.18614 13.5888 1.30866 13.5381C1.40054 13.5 1.51703 13.5 1.75 13.5H11.75C11.983 13.5 12.0995 13.5 12.1913 13.5381C12.3139 13.5888 12.4112 13.6861 12.4619 13.8087C12.5 13.9005 12.5 14.017 12.5 14.25C12.5 14.483 12.5 14.5995 12.4619 14.6913C12.4112 14.8139 12.3139 14.9112 12.1913 14.9619C12.0995 15 11.983 15 11.75 15Z" fill="#5BAFD4"/>
</svg>

<svg xmlns="http://www.w3.org/2000/svg" width="16" height="16" fill="none"><path stroke="#5BAFD4" stroke-width="1.5" d="M11.6 2.75h1c.4 0 .513.002.595.015a1.25 1.25 0 0 1 1.04 1.04c.013.082.015.195.015.595 0 .586-.002.792-.028.952a2.25 2.25 0 0 1-1.87 1.87c-.16.026-.366.028-.952.028h-.15a8 8 0 0 1-.3-.005.25.25 0 0 1-.195-.194l-.003-.053-.002-.248V3.6c0-.292 0-.467.011-.596a.6.6 0 0 1 .018-.12.25.25 0 0 1 .104-.105.6.6 0 0 1 .121-.018c.13-.01.304-.011.596-.011Zm-.82.13v.002zm.1-.1h.002z"/><path fill="#5BAFD4" d="M1 6.5V4.857c0-.798 0-1.197.112-1.518A2 2 0 0 1 2.34 2.112C2.66 2 3.06 2 3.857 2H10.4c.56 0 .84 0 1.054.109a1 1 0 0 1 .437.437C12 2.76 12 3.04 12 3.6v2.9c0 .464 0 .696-.015.892a5 5 0 0 1-4.593 4.593C7.196 12 6.964 12 6.5 12s-.696 0-.892-.015a5 5 0 0 1-4.593-4.593C1 7.196 1 6.964 1 6.5M11.75 15h-10c-.233 0-.35 0-.441-.038a.5.5 0 0 1-.27-.27C1 14.6 1 14.482 1 14.25s0-.35.038-.441a.5.5 0 0 1 .27-.27c.093-.039.209-.039.442-.039h10c.233 0 .35 0 .441.038a.5.5 0 0 1 .27.27c.039.092.039.209.039.442s0 .35-.038.441a.5.5 0 0 1-.27.27c-.092.039-.21.039-.442.039"/></svg>
